X: 1
T: Farquhar And Hettie's
M: 3/4
L: 1/8
R: waltz
K: Dmaj
|:ag | f2 a3 f | d3 f ed | B2 d3 B | A3 B AG |
F2 A2 d2 | f2 a3 f | e6  | e4 ag |
f2 a3 f | d3 f ed | B2 d3 B | A3 B AG |
F2 A2 df | e3 d c2 | d6  | d4  :|
|:(3B<AG | F2 A2 d2 | f4 (3fef | e d3 B2 | A4(3B<AG |
F2 A2 d2 | f2 a3 f | fe- e4 | e4 ab   |
a2 f2 e2 | f4  ef | f d3 B2 | A4 (3B<AG |
F2 A2 df | e3 d c2 | d6 | d4 :|
